!!! OTL: Berkowitz260
!!! Chapter: 1
!!! Section: II
!!! Page: 60
!!! Mode: 
!!! Encoder: DJB
**kern
*staff1
*I"Piano
=1-
*clefG2
*k[f#c#g#]
*f#:
*M3/4
8.ccc#\L
16bb#\Jk
8ccc#\L
8aa\J
8gg#\L
8ff#\J
=2
8.ddd\L
16ccc#\Jk
8ddd\L
8bb\J
8gg#\L
8ff#\J
=3
8.ee#\L
16ff#\Jk
8gg#\L
8bb\J
8aa\L
8gg#\J
=4
8ff#\L
8gg#\J
4aa\
4r
=5
8ddd\L
8bb\J
8gg#\L
8ee\J
8ff#\L
8gg#\J
=6
8aa\L
8bb\J
4ccc#\
4ccc#\
=7
!!linebreak:original
8ddd\L
8bb\J
8gg#\L
8ddd\J
8ccc#\L
8ee#\J
=8
2ff#\
4r
=9
8ee\L
8ff#\J
8gg#\L
8aa\J
8bb\L
8ccc#\J
=10
4ddd\
4ccc#\
4ccc#\
=11
8cc#\L
8dd#\J
8ee#\L
8ff#\J
8gg#\L
8aa\J
=12
4bb\
8aa\L
8gg#\J
4ff#\
=13
8.dd\L
16ff#\Jk
8gg#\L
8ff#\J
8ee#\L
8ff#\J
=14
!!linebreak:original
8.cc#\L
16ff#\Jk
8gg#\L
8bb\J
4aa\
=15
8gg#\L
8ff##\J
8gg#\L
8ee#\J
8bb\L
8aa\J
=16
4ff#\
2r
==
*-
